resources/svg/table-col-before.svg

<svg xmlns="http://www.w3.org/2000/svg" viewBox="0 0 14 14" fill="currentColor"><path d="M8,12 L8,2 L2,2 L2,3 C2,3.55228475 1.55228475,4 1,4 C0.44771525,4 0,3.55228475 0,3 L0,2 C0,0.8954305 0.8954305,0 2,0 L12,0 C13.1045695,0 14,0.8954305 14,2 L14,12 C14,13.1045695 13.1045695,14 12,14 L2,14 C0.8954305,14 0,13.1045695 0,12 L0,11 C0,10.4477153 0.44771525,10 1,10 C1.55228475,10 2,10.4477153 2,11 L2,12 L8,12 Z M10,12 L12,12 L12,10 L10,10 L10,12 Z M12,8 L12,6 L10,6 L10,8 L12,8 Z M12,4 L12,2 L10,2 L10,4 L12,4 Z M3,6 L3,5 C3,4.44771525 3.44771525,4 4,4 C4.55228475,4 5,4.44771525 5,5 L5,6 L6,6 C6.55228475,6 7,6.44771525 7,7 C7,7.55228475 6.55228475,8 6,8 L5,8 L5,9 C5,9.55228475 4.55228475,10 4,10 C3.44771525,10 3,9.55228475 3,9 L3,8 L2,8 C1.44771525,8 1,7.55228475 1,7 C1,6.44771525 1.44771525,6 2,6 L3,6 Z"/></svg>

<svg xmlns="http://www.w3.org/2000/svg" fill="currentColor" viewBox="0 0 14 14"><path d="M8 12V2H2v1a1 1 0 1 1-2 0V2a2 2 0 0 1 2-2h10a2 2 0 0 1 2 2v10a2 2 0 0 1-2 2H2a2 2 0 0 1-2-2v-1a1 1 0 0 1 2 0v1h6Zm2 0h2v-2h-2v2Zm2-4V6h-2v2h2Zm0-4V2h-2v2h2ZM3 6V5a1 1 0 1 1 2 0v1h1a1 1 0 1 1 0 2H5v1a1 1 0 1 1-2 0V8H2a1 1 0 1 1 0-2h1Z"/></svg>
